icons/quote-24.svg

<svg width="24" height="24" viewBox="0 0 24 24" fill="none" xmlns="http://www.w3.org/2000/svg">
<path fill-rule="evenodd" clip-rule="evenodd" d="M3 6.25C3 5.83579 3.33579 5.5 3.75 5.5H17.25C17.6642 5.5 18 5.83579 18 6.25C18 6.66421 17.6642 7 17.25 7H3.75C3.33579 7 3 6.66421 3 6.25ZM3.75 11C4.16421 11 4.5 11.3358 4.5 11.75V18.75C4.5 19.1642 4.16421 19.5 3.75 19.5C3.33579 19.5 3 19.1642 3 18.75V11.75C3 11.3358 3.33579 11 3.75 11ZM8 12.3125C8 11.8983 8.33579 11.5625 8.75 11.5625H20.25C20.6642 11.5625 21 11.8983 21 12.3125C21 12.7267 20.6642 13.0625 20.25 13.0625H8.75C8.33579 13.0625 8 12.7267 8 12.3125ZM8 18.25C8 17.8358 8.33579 17.5 8.75 17.5H20.25C20.6642 17.5 21 17.8358 21 18.25C21 18.6642 20.6642 19 20.25 19H8.75C8.33579 19 8 18.6642 8 18.25Z" fill="#24292E"/>
</svg>

<svg xmlns="http://www.w3.org/2000/svg" width="24" height="24" viewBox="0 0 24 24"><path fill-rule="evenodd" d="M3 6.25a.75.75 0 01.75-.75h13.5a.75.75 0 010 1.5H3.75A.75.75 0 013 6.25zM3.75 11a.75.75 0 01.75.75v7a.75.75 0 01-1.5 0v-7a.75.75 0 01.75-.75zM8 12.313a.75.75 0 01.75-.75h11.5a.75.75 0 010 1.5H8.75a.75.75 0 01-.75-.75zm0 5.937a.75.75 0 01.75-.75h11.5a.75.75 0 010 1.5H8.75a.75.75 0 01-.75-.75z"/></svg>
